;FLAVOR:Marlin
;TIME:984
;Filament used: 0.62045m
;Layer height: 0.2
;MINX:96.5
;MINY:96.5
;MINZ:0.2
;MAXX:138.5
;MAXY:138.5
;MAXZ:6.6
;TARGET_MACHINE.NAME:Creality Ender-3
;Generated with Cura_SteamEngine 5.6.0
M140 S80
M105
M190 S80
M104 S235
M105
M109 S235
M82 ;absolute extrusion mode
; Ender 3 Custom Start G-code
G92 E0 ; Reset Extruder
G28 ; Home all axes
G1 Z2.0 F3000 ; Move Z Axis up little to prevent scratching of Heat Bed
G1 X0.1 Y20 Z0.3 F5000.0 ; Move to start position
G1 X0.1 Y200.0 Z0.3 F1500.0 E15 ; Draw the first line
G1 X0.4 Y200.0 Z0.3 F5000.0 ; Move to side a little
G1 X0.4 Y20 Z0.3 F1500.0 E30 ; Draw the second line
G92 E0 ; Reset Extruder
G1 Z2.0 F3000 ; Move Z Axis up little to prevent scratching of Heat Bed
G1 X5 Y20 Z0.3 F5000.0 ; Move over to prevent blob squish
G92 E0
G92 E0
G1 F2700 E-5
;LAYER_COUNT:33
;LAYER:0
M107
G0 F6000 X99.956 Y99.513 Z0.2
;TYPE:SKIRT
G1 F2700 E0
G1 F1200 X100.692 Y98.876 E0.03237
G1 X101.424 Y98.346 E0.06243
G1 X102.321 Y97.811 E0.09717
G1 X103.199 Y97.39 E0.12956
G1 X104.112 Y97.048 E0.16198
G1 X105.049 Y96.789 E0.19432
G1 X106.016 Y96.611 E0.22702
G1 X107.155 Y96.515 E0.26504
G1 X107.812 Y96.5 E0.2869
G1 X126.804 Y96.5 E0.91857
G1 X127.684 Y96.513 E0.94784
G1 X128.656 Y96.572 E0.98023
G1 X129.619 Y96.718 E1.01263
G1 X130.566 Y96.949 E1.04505
G1 X131.454 Y97.249 E1.07622
G1 X132.346 Y97.639 E1.1086
G1 X133.229 Y98.126 E1.14214
G1 X133.98 Y98.628 E1.17219
G1 X134.795 Y99.286 E1.20703
G1 X135.493 Y99.964 E1.23939
G1 X136.129 Y100.701 E1.27177
G1 X136.699 Y101.491 E1.30417
G1 X137.161 Y102.267 E1.33421
G1 X137.615 Y103.209 E1.36899
G1 X137.944 Y104.087 E1.40017
G1 X138.213 Y105.059 E1.43372
G1 X138.39 Y106.025 E1.46638
G1 X138.485 Y107.155 E1.5041
G1 X138.5 Y107.83 E1.52655
G1 X138.499 Y126.9 E2.16082
G1 X138.488 Y127.663 E2.18621
G1 X138.431 Y128.636 E2.21862
G1 X138.286 Y129.599 E2.25101
G1 X138.057 Y130.545 E2.28339
G1 X137.746 Y131.469 E2.31581
G1 X137.354 Y132.36 E2.34819
G1 X136.886 Y133.212 E2.38052
G1 X136.364 Y133.993 E2.41176
G1 X135.731 Y134.778 E2.4453
G1 X135.106 Y135.429 E2.47532
G1 X134.317 Y136.117 E2.51014
G1 X133.557 Y136.667 E2.54134
G1 X132.69 Y137.184 E2.57491
G1 X131.812 Y137.606 E2.60732
G1 X130.901 Y137.948 E2.63968
G1 X129.962 Y138.209 E2.6721
G1 X128.996 Y138.387 E2.70477
G1 X127.845 Y138.485 E2.74319
G1 X127.17 Y138.5 E2.76564
G1 X108.064 Y138.499 E3.40111
G1 X107.331 Y138.488 E3.42549
G1 X106.359 Y138.431 E3.45788
G1 X105.396 Y138.285 E3.49027
G1 X104.45 Y138.056 E3.52265
G1 X103.526 Y137.744 E3.55508
G1 X102.636 Y137.352 E3.58743
G1 X101.813 Y136.901 E3.61864
G1 X100.974 Y136.34 E3.65221
G1 X100.27 Y135.774 E3.68226
G1 X99.517 Y135.049 E3.71702
G1 X98.88 Y134.313 E3.7494
G1 X98.35 Y133.582 E3.77943
G1 X97.814 Y132.685 E3.81418
G1 X97.392 Y131.807 E3.84658
G1 X97.05 Y130.895 E3.87898
G1 X96.79 Y129.957 E3.91135
G1 X96.612 Y128.988 E3.94412
G1 X96.514 Y127.809 E3.98347
G1 X96.5 Y127.158 E4.00513
G1 X96.501 Y108.025 E4.64149
G1 X96.512 Y107.325 E4.66478
G1 X96.57 Y106.352 E4.6972
G1 X96.716 Y105.389 E4.72959
G1 X96.946 Y104.443 E4.76197
G1 X97.259 Y103.52 E4.79439
G1 X97.651 Y102.63 E4.82674
G1 X98.121 Y101.777 E4.85913
G1 X98.664 Y100.969 E4.89151
G1 X99.231 Y100.265 E4.92157
G1 X99.956 Y99.513 E4.95632
G0 F6000 X100.218 Y99.815
G1 F1200 X100.927 Y99.2 E4.98753
G1 X101.659 Y98.67 E5.01759
G1 X102.495 Y98.171 E5.04997
G1 X103.34 Y97.764 E5.08117
G1 X104.219 Y97.433 E5.11241
G1 X105.122 Y97.182 E5.14358
G1 X106.05 Y97.01 E5.17497
G1 X107.189 Y96.914 E5.21299
G1 X107.821 Y96.9 E5.23401
G1 X126.798 Y96.9 E5.86519
G1 X127.66 Y96.912 E5.89386
G1 X128.597 Y96.968 E5.92509
G1 X129.525 Y97.107 E5.95629
G1 X130.438 Y97.328 E5.98754
G1 X131.294 Y97.616 E6.01758
G1 X132.186 Y98.006 E6.04996
G1 X133.007 Y98.459 E6.08114
G1 X133.758 Y98.961 E6.11119
G1 X134.517 Y99.573 E6.14362
G1 X135.191 Y100.226 E6.17483
G1 X135.805 Y100.935 E6.20603
G1 X136.355 Y101.696 E6.23726
G1 X136.817 Y102.472 E6.26729
G1 X137.24 Y103.349 E6.29968
G1 X137.569 Y104.227 E6.33086
G1 X137.82 Y105.132 E6.3621
G1 X137.991 Y106.059 E6.39345
G1 X138.086 Y107.189 E6.43117
G1 X138.1 Y107.83 E6.45249
G1 X138.099 Y126.895 E7.0866
G1 X138.089 Y127.64 E7.11138
G1 X138.035 Y128.577 E7.1426
G1 X137.897 Y129.506 E7.17383
G1 X137.678 Y130.418 E7.20503
G1 X137.38 Y131.308 E7.23625
G1 X137.003 Y132.168 E7.26748
G1 X136.553 Y132.99 E7.29865
G1 X136.031 Y133.771 E7.32989
G1 X135.442 Y134.501 E7.36109
G1 X134.817 Y135.152 E7.3911
G1 X134.082 Y135.793 E7.42354
G1 X133.322 Y136.343 E7.45474
G1 X132.516 Y136.824 E7.48596
G1 X131.671 Y137.232 E7.51717
G1 X130.793 Y137.563 E7.54838
G1 X129.889 Y137.816 E7.5796
G1 X128.962 Y137.988 E7.61096
G1 X127.811 Y138.086 E7.64938
G1 X127.17 Y138.1 E7.67071
G1 X108.07 Y138.099 E8.30597
G1 X107.354 Y138.089 E8.32979
G1 X106.418 Y138.035 E8.36097
G1 X105.489 Y137.896 E8.39222
G1 X104.577 Y137.677 E8.42341
G1 X103.687 Y137.378 E8.45464
G1 X102.828 Y137.001 E8.48584
G1 X102.005 Y136.55 E8.51705
G1 X101.225 Y136.028 E8.54827
G1 X100.521 Y135.462 E8.57831
G1 X99.819 Y134.787 E8.61071
G1 X99.204 Y134.078 E8.64192
G1 X98.674 Y133.347 E8.67195
G1 X98.174 Y132.511 E8.70435
G1 X97.766 Y131.666 E8.73556
G1 X97.435 Y130.788 E8.76677
G1 X97.183 Y129.884 E8.79798
G1 X97.011 Y128.955 E8.82941
G1 X96.913 Y127.776 E8.86876
G1 X96.9 Y127.158 E8.88932
G1 X96.901 Y108.031 E9.52548
G1 X96.911 Y107.348 E9.5482
G1 X96.966 Y106.411 E9.57942
G1 X97.105 Y105.483 E9.61063
G1 X97.325 Y104.571 E9.64183
G1 X97.625 Y103.681 E9.67307
G1 X98.002 Y102.822 E9.70427
G1 X98.453 Y102 E9.73546
G1 X98.976 Y101.22 E9.76669
G1 X99.543 Y100.516 E9.79676
G1 X100.218 Y99.815 E9.82912
G0 F6000 X100.481 Y100.117
G1 F1200 X101.162 Y99.524 E9.85916
G1 X101.894 Y98.994 E9.88922
G1 X102.669 Y98.531 E9.91924
G1 X103.482 Y98.138 E9.94928
G1 X104.327 Y97.818 E9.97933
G1 X105.196 Y97.575 E10.00934
G1 X106.084 Y97.409 E10.03939
G1 X107.223 Y97.313 E10.07741
G1 X107.83 Y97.3 E10.0976
G1 X126.793 Y97.3 E10.72831
G1 X127.637 Y97.311 E10.75639
G1 X128.539 Y97.364 E10.78644
G1 X129.432 Y97.496 E10.81646
G1 X130.31 Y97.707 E10.8465
G1 X131.166 Y97.995 E10.87653
G1 X131.993 Y98.357 E10.90656
G1 X132.785 Y98.792 E10.93661
G1 X133.536 Y99.294 E10.96666
G1 X134.239 Y99.861 E10.9967
G1 X134.889 Y100.488 E11.02674
G1 X135.481 Y101.17 E11.05677
G1 X136.011 Y101.901 E11.0868
G1 X136.473 Y102.677 E11.11684
G1 X136.866 Y103.49 E11.14688
G1 X137.184 Y104.335 E11.17691
G1 X137.427 Y105.205 E11.20695
G1 X137.592 Y106.093 E11.23699
G1 X137.687 Y107.223 E11.27471
G1 X137.7 Y107.83 E11.2949
G1 X137.699 Y126.89 E11.92884
G1 X137.69 Y127.617 E11.95302
G1 X137.639 Y128.519 E11.98307
G1 X137.508 Y129.413 E12.01312
G1 X137.299 Y130.291 E12.04314
G1 X137.013 Y131.148 E12.07319
G1 X136.652 Y131.976 E12.10323
G1 X136.22 Y132.768 E12.13324
G1 X135.719 Y133.52 E12.16329
G1 X135.153 Y134.224 E12.19334
G1 X134.528 Y134.875 E12.22335
G1 X133.847 Y135.469 E12.25341
G1 X133.116 Y136 E12.28346
G1 X132.342 Y136.464 E12.31347
G1 X131.529 Y136.858 E12.34352
G1 X130.685 Y137.178 E12.37354
G1 X129.815 Y137.423 E12.4036
G1 X128.928 Y137.589 E12.43362
G1 X127.777 Y137.687 E12.47204
G1 X127.17 Y137.7 E12.49223
G1 X108.075 Y137.699 E13.12734
G1 X107.377 Y137.69 E13.15055
G1 X106.476 Y137.639 E13.18057
G1 X105.582 Y137.507 E13.21062
G1 X104.704 Y137.298 E13.24064
G1 X103.847 Y137.011 E13.2707
G1 X103.02 Y136.65 E13.30072
G1 X102.227 Y136.217 E13.33077
G1 X101.476 Y135.716 E13.36079
G1 X100.772 Y135.15 E13.39084
G1 X100.121 Y134.524 E13.42088
G1 X99.528 Y133.843 E13.45091
G1 X98.998 Y133.112 E13.48094
G1 X98.534 Y132.337 E13.51098
G1 X98.14 Y131.524 E13.54103
G1 X97.82 Y130.68 E13.57105
G1 X97.576 Y129.81 E13.60111
G1 X97.41 Y128.922 E13.63115
G1 X97.313 Y127.767 E13.6697
G1 X97.3 Y127.158 E13.68996
G1 X97.301 Y108.036 E14.32597
G1 X97.31 Y107.371 E14.34809
G1 X97.362 Y106.469 E14.37814
G1 X97.494 Y105.576 E14.40816
G1 X97.704 Y104.698 E14.43819
G1 X97.991 Y103.841 E14.46825
G1 X98.353 Y103.014 E14.49827
G1 X98.786 Y102.222 E14.52829
G1 X99.288 Y101.471 E14.55834
G1 X99.855 Y100.767 E14.5884
G1 X100.481 Y100.117 E14.61842
G1 F2700 E9.61842
;MESH:NutTest.3mf
G0 F6000 X107.914 Y106.835
G0 X107.914 Y107.914
G0 X126.328 Y108.672
G0 X126.5 Y126.5
;TYPE:WALL-INNER
G1 F2700 E14.61842
G1 F1200 X126.5 Y108.5 E15.2171
G1 X108.5 Y108.5 E15.81578
G1 X108.5 Y126.5 E16.41447
G1 X126.5 Y126.5 E17.01315
G0 F6000 X126.9 Y126.9
G1 F1200 X126.9 Y108.1 E17.63844
G1 X108.1 Y108.1 E18.26373
G1 X108.1 Y126.9 E18.88902
G1 X126.9 Y126.9 E19.51431
G0 F6000 X127.3 Y127.3
;TYPE:WALL-OUTER
G1 F1200 X127.3 Y107.7 E20.16621
G1 X107.7 Y107.7 E20.81811
G1 X107.7 Y127.3 E21.47001
G1 X127.3 Y127.3 E22.1219
G0 F6000 X127.03 Y127.03
G0 X126.4 Y126.14
G0 X126.14 Y126.14
;TYPE:SKIN
G1 F1200 X108.86 Y126.14 E22.69664
G1 X108.86 Y108.86 E23.27137
G1 X126.14 Y108.86 E23.84611
G1 X126.14 Y126.14 E24.42085
G0 F6000 X126.4 Y126.14
G0 X126.328 Y108.672
G0 X125.465 Y108.6
G0 X125.465 Y109.06
G1 F1200 X125.939 Y109.535 E24.44316
G0 F6000 X125.939 Y110.1
G1 F1200 X124.899 Y109.06 E24.49208
G0 F6000 X124.334 Y109.06
G1 F1200 X125.939 Y110.666 E24.5676
G0 F6000 X125.939 Y111.232
G1 F1200 X123.768 Y109.06 E24.66974
G0 F6000 X123.202 Y109.06
G1 F1200 X125.939 Y111.797 E24.79848
G0 F6000 X125.939 Y112.363
G1 F1200 X122.637 Y109.06 E24.95382
G0 F6000 X122.071 Y109.06
G1 F1200 X125.939 Y112.929 E25.13578
G0 F6000 X125.939 Y113.494
G1 F1200 X121.505 Y109.06 E25.34434
G0 F6000 X120.94 Y109.06
G1 F1200 X125.939 Y114.06 E25.57951
G0 F6000 X125.939 Y114.626
G1 F1200 X120.374 Y109.06 E25.84129
G0 F6000 X119.808 Y109.06
G1 F1200 X125.939 Y115.191 E26.12967
G0 F6000 X125.939 Y115.757
G1 F1200 X119.242 Y109.06 E26.44468
G0 F6000 X118.677 Y109.06
G1 F1200 X125.939 Y116.323 E26.78629
G0 F6000 X125.939 Y116.888
G1 F1200 X118.111 Y109.06 E27.15449
G0 F6000 X117.545 Y109.06
G1 F1200 X125.939 Y117.454 E27.54932
G0 F6000 X125.939 Y118.02
G1 F1200 X116.98 Y109.06 E27.97075
G0 F6000 X116.414 Y109.06
G1 F1200 X125.939 Y118.586 E28.4188
G0 F6000 X125.939 Y119.151
G1 F1200 X115.848 Y109.06 E28.89345
G0 F6000 X115.283 Y109.06
G1 F1200 X125.939 Y119.717 E29.3947
G0 F6000 X125.939 Y120.283
G1 F1200 X114.717 Y109.06 E29.92257
G0 F6000 X114.151 Y109.06
G1 F1200 X125.939 Y120.848 E30.47704
G0 F6000 X125.939 Y121.414
G1 F1200 X113.586 Y109.06 E31.05811
G0 F6000 X113.02 Y109.06
G1 F1200 X125.939 Y121.98 E31.6658
G0 F6000 X125.939 Y122.545
G1 F1200 X112.454 Y109.06 E32.3001
G0 F6000 X111.889 Y109.06
G1 F1200 X125.939 Y123.111 E32.96099
G0 F6000 X125.939 Y123.677
G1 F1200 X111.323 Y109.06 E33.6485
G0 F6000 X110.757 Y109.06
G1 F1200 X125.939 Y124.242 E34.36262
G0 F6000 X125.939 Y124.808
G1 F1200 X110.191 Y109.06 E35.10336
G0 F6000 X109.626 Y109.06
G1 F1200 X125.939 Y125.374 E35.87069
G0 F6000 X125.939 Y125.939
G1 F1200 X109.059 Y109.059 E36.66468
G0 F6000 X109.059 Y109.625
G1 F1200 X125.373 Y125.939 E37.43204
G0 F6000 X124.807 Y125.939
G1 F1200 X109.059 Y110.191 E38.17277
G0 F6000 X109.059 Y110.756
G1 F1200 X124.242 Y125.939 E38.88694
G0 F6000 X123.676 Y125.939
G1 F1200 X109.059 Y111.322 E39.57448
G0 F6000 X109.059 Y111.888
G1 F1200 X123.11 Y125.939 E40.23539
G0 F6000 X122.545 Y125.939
G1 F1200 X109.059 Y112.454 E40.86971
G0 F6000 X109.059 Y113.019
G1 F1200 X121.979 Y125.939 E41.47743
G0 F6000 X121.413 Y125.939
G1 F1200 X109.059 Y113.585 E42.05852
G0 F6000 X109.059 Y114.151
G1 F1200 X120.848 Y125.939 E42.61301
G0 F6000 X120.282 Y125.939
G1 F1200 X109.059 Y114.716 E43.14091
G0 F6000 X109.059 Y115.282
G1 F1200 X119.716 Y125.939 E43.64218
G0 F6000 X119.151 Y125.939
G1 F1200 X109.059 Y115.848 E44.11686
G0 F6000 X109.059 Y116.413
G1 F1200 X118.585 Y125.939 E44.56493
G0 F6000 X118.019 Y125.939
G1 F1200 X109.059 Y116.979 E44.98638
G0 F6000 X109.059 Y117.545
G1 F1200 X117.453 Y125.939 E45.38121
G0 F6000 X116.888 Y125.939
G1 F1200 X109.059 Y118.11 E45.74946
G0 F6000 X109.059 Y118.676
G1 F1200 X116.322 Y125.939 E46.09109
G0 F6000 X115.756 Y125.939
G1 F1200 X109.059 Y119.242 E46.4061
G0 F6000 X109.059 Y119.807
G1 F1200 X115.191 Y125.939 E46.69453
G0 F6000 X114.625 Y125.939
G1 F1200 X109.059 Y120.373 E46.95633
G0 F6000 X109.059 Y120.939
G1 F1200 X114.059 Y125.939 E47.19152
G0 F6000 X113.494 Y125.939
G1 F1200 X109.059 Y121.504 E47.40013
G0 F6000 X109.059 Y122.07
G1 F1200 X112.928 Y125.939 E47.58211
G0 F6000 X112.362 Y125.939
G1 F1200 X109.059 Y122.636 E47.73748
G0 F6000 X109.059 Y123.202
G1 F1200 X111.797 Y125.939 E47.86624
G0 F6000 X111.231 Y125.939
G1 F1200 X109.059 Y123.767 E47.9684
G0 F6000 X109.059 Y124.333
G1 F1200 X110.665 Y125.939 E48.04395
G0 F6000 X110.1 Y125.939
G1 F1200 X109.059 Y124.899 E48.09289
G0 F6000 X109.059 Y125.464
G1 F1200 X109.534 Y125.939 E48.11523
G1 F2700 E43.11523
;MESH:NONMESH
G0 F300 X109.534 Y125.939 Z0.4
G0 F6000 X109.534 Y126.4
G0 X108.672 Y126.328
G0 X107.914 Y107.914
G0 X107.914 Y106.835
G0 X100.481 Y100.117
;TIME_ELAPSED:84.292907
;LAYER:1
M106 S85
;TYPE:SKIRT
G1 F2700 E48.11523
G1 F1200 X101.162 Y99.524 E48.14526
G1 X101.894 Y98.994 E48.17532
G1 X102.669 Y98.531 E48.20535
G1 X103.482 Y98.138 E48.23538
G1 X104.327 Y97.818 E48.26544
G1 X105.196 Y97.575 E48.29545
G1 X106.084 Y97.409 E48.32549
G1 X107.223 Y97.313 E48.36351
G1 X107.83 Y97.3 E48.3837
G1 X126.793 Y97.3 E49.01442
G1 X127.637 Y97.311 E49.04249
G1 X128.539 Y97.364 E49.07254
G1 X129.432 Y97.496 E49.10257
G1 X130.31 Y97.707 E49.1326
G1 X131.166 Y97.995 E49.16264
G1 X131.993 Y98.357 E49.19267
G1 X132.785 Y98.792 E49.22272
G1 X133.536 Y99.294 E49.25276
G1 X134.239 Y99.861 E49.2828
G1 X134.889 Y100.488 E49.31284
G1 X135.481 Y101.17 E49.34288
G1 X136.011 Y101.901 E49.37291
G1 X136.473 Y102.677 E49.40295
G1 X136.866 Y103.49 E49.43298
G1 X137.184 Y104.335 E49.46301
G1 X137.427 Y105.205 E49.49305
G1 X137.592 Y106.093 E49.5231
G1 X137.687 Y107.223 E49.56081
G1 X137.7 Y107.83 E49.58101
G1 X137.699 Y126.89 E50.21494
G1 X137.69 Y127.617 E50.23913
G1 X137.639 Y128.519 E50.26917
G1 X137.508 Y129.413 E50.29923
G1 X137.299 Y130.291 E50.32924
G1 X137.013 Y131.148 E50.35929
G1 X136.652 Y131.976 E50.38934
G1 X136.22 Y132.768 E50.41934
G1 X135.719 Y133.52 E50.4494
G1 X135.153 Y134.224 E50.47944
G1 X134.528 Y134.875 E50.50946
G1 X133.847 Y135.469 E50.53951
G1 X133.116 Y136 E50.56956
G1 X132.342 Y136.464 E50.59958
G1 X131.529 Y136.858 E50.62963
G1 X130.685 Y137.178 E50.65965
G1 X129.815 Y137.423 E50.68971
G1 X128.928 Y137.589 E50.71972
G1 X127.777 Y137.687 E50.75814
G1 X127.17 Y137.7 E50.77834
G1 X108.075 Y137.699 E51.41344
G1 X107.377 Y137.69 E51.43666
G1 X106.476 Y137.639 E51.46667
G1 X105.582 Y137.507 E51.49673
G1 X104.704 Y137.298 E51.52675
G1 X103.847 Y137.011 E51.55681
G1 X103.02 Y136.65 E51.58682
G1 X102.227 Y136.217 E51.61687
G1 X101.476 Y135.716 E51.6469
G1 X100.772 Y135.15 E51.67694
G1 X100.121 Y134.524 E51.70698
G1 X99.528 Y133.843 E51.73702
G1 X98.998 Y133.112 E51.76705
G1 X98.534 Y132.337 E51.79709
G1 X98.14 Y131.524 E51.82714
G1 X97.82 Y130.68 E51.85716
G1 X97.576 Y129.81 E51.88721
G1 X97.41 Y128.922 E51.91726
G1 X97.313 Y127.767 E51.95581
G1 X97.3 Y127.158 E51.97607
G1 X97.301 Y108.036 E52.61207
G1 X97.31 Y107.371 E52.63419
G1 X97.362 Y106.469 E52.66424
G1 X97.494 Y105.576 E52.69427
G1 X97.704 Y104.698 E52.72429
G1 X97.991 Y103.841 E52.75435
G1 X98.353 Y103.014 E52.78438
G1 X98.786 Y102.222 E52.8144
G1 X99.288 Y101.471 E52.84444
G1 X99.855 Y100.767 E52.87451
G1 X100.481 Y100.117 E52.90452
G1 F2700 E47.90452
;MESH:NutTest.3mf
G0 F7500 X107.914 Y106.835
G0 X107.914 Y107.914
G0 X126.328 Y108.672
G0 X126.5 Y126.5
;TYPE:WALL-INNER
G1 F2700 E52.90452
G1 F1350 X126.5 Y108.5 E53.50321
G1 X108.5 Y108.5 E54.10189
G1 X108.5 Y126.5 E54.70057
G1 X126.5 Y126.5 E55.29925
G0 F7500 X126.9 Y126.9
G1 F1350 X126.9 Y108.1 E55.92454
G1 X108.1 Y108.1 E56.54983
G1 X108.1 Y126.9 E57.17513
G1 X126.9 Y126.9 E57.80042
G0 F7500 X127.3 Y127.3
;TYPE:WALL-OUTER
G1 F1350 X127.3 Y107.7 E58.45231
G1 X107.7 Y107.7 E59.10421
G1 X107.7 Y127.3 E59.75611
G1 X127.3 Y127.3 E60.40801
G0 F7500 X127.03 Y127.03
G0 X126.4 Y126.14
G0 X126.14 Y126.14
;TYPE:SKIN
G1 F1350 X108.86 Y126.14 E60.98275
G1 X108.86 Y108.86 E61.55748
G1 X126.14 Y108.86 E62.13222
G1 X126.14 Y126.14 E62.70695
G0 F7500 X125.79 Y125.939
